X:1
T:Nature Boy
C:x
Q:1/4=90
M:C
K:F
L:1/4
V:1
A, | A/F/ D3 | z z/ A,/ E/F/G/B/ | A/F/ D3 | z z/ A,/ E/F/G/B/ | 
A3/2 d/ ^c2 | A3/2 c/ =B2 | G3/2 B/ A3/2 D/ | E3 z/ A,/ |
A3 G | E3 A, | G3 F | D3 A, | F3 E | =B,3 C | ^C4 | z2 z3/2 A,/ |
V:2 bass 
z | [F,A,D]2 [F,A,D]2 | [G,B,DE]2 [G,B, D]2 | [F,A,D]2 [F,A,D]2 | [G,B,DE]2 [G,B,D]2 |
[FAd]2 [FA^c]2 | [FAc]2 [FA=B]2 | [EGB]2 [F,A,D]2
